rospo-icon-theme-classic-common/24x24/apps/feh.svg

<svg height="24" width="24" xmlns="http://www.w3.org/2000/svg"><rect height="21" opacity=".2" rx="1.05" transform="matrix(0 -1 -1 0 0 0)" width="21" x="-22.5" y="-22"/><rect fill="#4f4f4f" height="21" rx="1.05" transform="matrix(0 -1 -1 0 0 0)" width="21" x="-22" y="-22"/><path d="m3 6.5v2 2 2 5h2v-5h3v-2h-3v-2h3v-2h-3zm6 0v11h2 3v-2h-3v-3h3v-2h-3v-2h3v-2h-3zm6 0v11h2v-5h1v5h2v-5-2-4h-2v4h-1v-4z" opacity=".2"/><g fill="#df4545"><path d="m3 6h2v11h-2z"/><path d="m6-8h2v5h-2z" transform="rotate(90)"/><path d="m10-8h2v5h-2z" transform="rotate(90)"/><path d="m9 6h2v11h-2z"/><path d="m6-14h2v5h-2z" transform="rotate(90)"/><path d="m10-14h2v5h-2z" transform="rotate(90)"/><path d="m15 6h2v11h-2z"/><path d="m10-20h2v5h-2z" transform="rotate(90)"/><path d="m15-14h2v5h-2z" transform="rotate(90)"/><path d="m18 6h2v11h-2z"/></g><path d="m2.0507812 1c-.5816999 0-1.0507812.4690813-1.0507812 1.0507812v.5c0-.5816999.4690813-1.0507812 1.0507812-1.0507812h18.8984378c.5817 0 1.050781.4690813 1.050781 1.0507812v-.5c0-.5816999-.469081-1.0507812-1.050781-1.0507812z" fill="#fff" opacity=".1"/><path d="m3 6v .5h2 3v-.5h-3zm6 0v .5h2 3v-.5h-3zm6 0v .5h2v-.5zm3 0v .5h2v-.5zm-13 4v .5h3v-.5zm6 0v .5h3v-.5zm6 0v .5h1v-.5zm-6 5v .5h3v-.5z" fill="#fff" opacity=".1"/></svg>

<svg xmlns="http://www.w3.org/2000/svg" width="24" height="24" version="1">
 <rect style="opacity:0.2" width="21" height="21" x="-22.5" y="-22" rx="1.05" ry="1.05" transform="matrix(0,-1,-1,0,0,0)"/>
 <rect style="fill:#4f4f4f" width="21" height="21" x="-22" y="-22" rx="1.05" ry="1.05" transform="matrix(0,-1,-1,0,0,0)"/>
 <path style="opacity:0.2" d="m 3,6.5 0,2 0,2 0,2 0,5 2,0 0,-5 3,0 0,-2 -3,0 0,-2 3,0 0,-2 -3,0 -2,0 z m 6,0 0,11 2,0 3,0 0,-2 -3,0 0,-3 3,0 0,-2 -3,0 0,-2 3,0 0,-2 -3,0 -2,0 z m 6,0 0,11 2,0 0,-5 1,0 0,5 2,0 0,-5 0,-2 0,-4 -2,0 0,4 -1,0 0,-4 -2,0 z"/>
 <rect style="fill:#df4545" width="2" height="11" x="3" y="6"/>
 <rect style="fill:#df4545" width="2" height="5" x="6" y="-8" transform="matrix(0,1,-1,0,0,0)"/>
 <rect style="fill:#df4545" width="2" height="5" x="10" y="-8" transform="matrix(0,1,-1,0,0,0)"/>
 <rect style="fill:#df4545" width="2" height="11" x="9" y="6"/>
 <rect style="fill:#df4545" width="2" height="5" x="6" y="-14" transform="matrix(0,1,-1,0,0,0)"/>
 <rect style="fill:#df4545" width="2" height="5" x="10" y="-14" transform="matrix(0,1,-1,0,0,0)"/>
 <rect style="fill:#df4545" width="2" height="11" x="15" y="6"/>
 <rect style="fill:#df4545" width="2" height="5" x="10" y="-20" transform="matrix(0,1,-1,0,0,0)"/>
 <rect style="fill:#df4545" width="2" height="5" x="15" y="-14" transform="matrix(0,1,-1,0,0,0)"/>
 <rect style="fill:#df4545" width="2" height="11" x="18" y="6"/>
 <path style="opacity:0.1;fill:#ffffff" d="M 2.0507812,1 C 1.4690813,1 1,1.4690813 1,2.0507812 l 0,0.5 C 1,1.9690813 1.4690813,1.5 2.0507812,1.5 l 18.8984378,0 C 21.530919,1.5 22,1.9690813 22,2.5507812 l 0,-0.5 C 22,1.4690813 21.530919,1 20.949219,1 L 2.0507812,1 Z"/>
 <path style="opacity:0.1;fill:#ffffff" d="M 3 6 L 3 6.5 L 5 6.5 L 8 6.5 L 8 6 L 5 6 L 3 6 z M 9 6 L 9 6.5 L 11 6.5 L 14 6.5 L 14 6 L 11 6 L 9 6 z M 15 6 L 15 6.5 L 17 6.5 L 17 6 L 15 6 z M 18 6 L 18 6.5 L 20 6.5 L 20 6 L 18 6 z M 5 10 L 5 10.5 L 8 10.5 L 8 10 L 5 10 z M 11 10 L 11 10.5 L 14 10.5 L 14 10 L 11 10 z M 17 10 L 17 10.5 L 18 10.5 L 18 10 L 17 10 z M 11 15 L 11 15.5 L 14 15.5 L 14 15 L 11 15 z"/>
</svg>
